src/assets/planets/Soleil.svg

<svg xmlns="http://www.w3.org/2000/svg" xmlns:xlink="http://www.w3.org/1999/xlink" viewBox="0 0 739.91 712.17"><defs><style>.cls-1{isolation:isolate;}.cls-2{fill:url(#radial-gradient);}.cls-3{fill:url(#radial-gradient-2);}.cls-4{opacity:0.9;mix-blend-mode:multiply;fill:url(#radial-gradient-3);}.cls-5{fill:#fcf9dd;opacity:0.7;mix-blend-mode:color-dodge;}</style><radialGradient id="radial-gradient" cx="366.36" cy="354.29" r="378.77" gradientUnits="userSpaceOnUse"><stop offset="0.35" stop-color="#f59f50"/><stop offset="0.58" stop-color="#f5a14f"/><stop offset="0.67" stop-color="#f5a84d"/><stop offset="0.72" stop-color="#f6b348"/><stop offset="0.77" stop-color="#f6c243"/><stop offset="0.82" stop-color="#f6bf43"/><stop offset="0.86" stop-color="#f5b641"/><stop offset="0.89" stop-color="#f3a63e"/><stop offset="0.92" stop-color="#f1903b"/><stop offset="0.95" stop-color="#ed7336"/><stop offset="0.97" stop-color="#ea5030"/><stop offset="1" stop-color="#e52729"/><stop offset="1" stop-color="#e52629"/></radialGradient><radialGradient id="radial-gradient-2" cx="229.87" cy="203.26" r="479.46" gradientUnits="userSpaceOnUse"><stop offset="0" stop-color="#eee86e"/><stop offset="0.02" stop-color="#eee16b"/><stop offset="0.14" stop-color="#efba5e"/><stop offset="0.25" stop-color="#f09d54"/><stop offset="0.35" stop-color="#f18c4e"/><stop offset="0.42" stop-color="#f1864c"/><stop offset="0.69" stop-color="#eb5239"/><stop offset="0.89" stop-color="#e7322d"/><stop offset="1" stop-color="#e52629"/></radialGradient><radialGradient id="radial-gradient-3" cx="278.43" cy="276.09" r="457.94" gradientUnits="userSpaceOnUse"><stop offset="0.29" stop-color="#fbe752"/><stop offset="1" stop-color="#eb5e4e"/></radialGradient></defs><g class="cls-1"><g id="Calque_2" data-name="Calque 2"><g id="Calque_1-2" data-name="Calque 1"><path class="cls-2" d="M739.91,406.38s-50.32-17.86-55-47.74v-6.52c.71-30,55-46.33,55-46.33s-60-.06-67.71-28.63,42-49.62,42-49.62-57.82,3.94-69.25-25.32,27.24-61.38,27.24-61.38-42.23,19.26-72.92,3S615,74.43,615,74.43s-43.55,31.41-70,25.7,0-67.82,0-67.82-28.56,36.4-62.11,36.4-25.7-64.95-25.7-64.95-15.7,32.84-46.4,43.55C385,56.33,373.06,13.65,370,0c-3.1,13.65-15,56.33-40.86,47.31C298.4,36.6,282.68,3.76,282.68,3.76S290.54,68.71,257,68.71s-62.1-36.4-62.1-36.4,26.41,62.11,0,67.82-70-25.7-70-25.7,46.4,53.19,15.7,69.43-72.91-3-72.91-3S106.37,173,95,202.22,25.7,227.54,25.7,227.54s49.76,21.07,42,49.62S0,305.79,0,305.79s54.26,16.35,55,46.33v6.52c-4.65,29.88-55,47.74-55,47.74s60,.06,67.72,28.61-42,49.64-42,49.64S83.52,480.69,95,510s-27.23,61.38-27.23,61.38,42.22-19.27,72.91-3-15.7,69.41-15.7,69.41,43.55-31.4,70-25.69,0,67.81,0,67.81,28.55-36.4,62.1-36.4,25.69,65,25.69,65,15.72-32.84,46.41-43.56c25.87-9,37.76,33.67,40.86,47.32,3.11-13.65,15-56.33,40.87-47.32,30.7,10.72,46.4,43.56,46.4,43.56s-7.85-65,25.7-65S545,679.84,545,679.84s-26.42-62.11,0-67.81,70,25.69,70,25.69-46.41-53.19-15.71-69.41,72.92,3,72.92,3S633.55,539.22,645,510s69.25-25.32,69.25-25.32-49.75-21.07-42-49.64S739.91,406.38,739.91,406.38Z"/><path class="cls-3" d="M656.31,354c0,158.15-128.2,286.34-286.34,286.34S83.61,512.17,83.61,354,211.8,67.67,370,67.67,656.31,195.87,656.31,354Z"/><path class="cls-4" d="M370,67.67C211.8,67.67,83.61,195.87,83.61,354S211.8,640.36,370,640.36,656.31,512.17,656.31,354,528.11,67.67,370,67.67ZM348.56,562.9c-130.88,0-237-106.1-237-237s106.08-237,237-237,237,106.1,237,237S479.44,562.9,348.56,562.9Z"/><path class="cls-5" d="M144.06,507.15c-41.35-59.45-45.36-116.4-48-157.45a1.73,1.73,0,0,0,0-.38,261.32,261.32,0,0,1-1.83-39.17C86.72,353,86.36,420.57,129.48,495c72.83,125.75,208.61,145.53,277,133.84C406.43,628.84,240.75,646.16,144.06,507.15Z"/></g></g></g></svg>

<svg  viewBox="0 0 740 713" fill="none" xmlns="http://www.w3.org/2000/svg">
<g clip-path="url(#clip0_47_193)">
<path d="M739.91 406.38C739.91 406.38 689.59 388.52 684.91 358.64V352.12C685.62 322.12 739.91 305.79 739.91 305.79C739.91 305.79 679.91 305.73 672.2 277.16C664.49 248.59 714.2 227.54 714.2 227.54C714.2 227.54 656.38 231.48 644.95 202.22C633.52 172.96 672.19 140.84 672.19 140.84C672.19 140.84 629.96 160.1 599.27 143.84C568.58 127.58 615 74.43 615 74.43C615 74.43 571.45 105.84 545 100.13C518.55 94.42 545 32.31 545 32.31C545 32.31 516.44 68.71 482.89 68.71C449.34 68.71 457.19 3.76 457.19 3.76C457.19 3.76 441.49 36.6 410.79 47.31C385 56.33 373.06 13.65 370 0C366.9 13.65 355 56.33 329.14 47.31C298.4 36.6 282.68 3.76 282.68 3.76C282.68 3.76 290.54 68.71 257 68.71C223.46 68.71 194.9 32.31 194.9 32.31C194.9 32.31 221.31 94.42 194.9 100.13C168.49 105.84 124.9 74.43 124.9 74.43C124.9 74.43 171.3 127.62 140.6 143.86C109.9 160.1 67.69 140.86 67.69 140.86C67.69 140.86 106.37 173 95 202.22C83.63 231.44 25.7 227.54 25.7 227.54C25.7 227.54 75.46 248.61 67.7 277.16C59.94 305.71 0 305.79 0 305.79C0 305.79 54.26 322.14 55 352.12V358.64C50.35 388.52 0 406.38 0 406.38C0 406.38 60 406.44 67.72 434.99C75.44 463.54 25.72 484.63 25.72 484.63C25.72 484.63 83.52 480.69 95 510C106.48 539.31 67.77 571.38 67.77 571.38C67.77 571.38 109.99 552.11 140.68 568.38C171.37 584.65 124.98 637.79 124.98 637.79C124.98 637.79 168.53 606.39 194.98 612.1C221.43 617.81 194.98 679.91 194.98 679.91C194.98 679.91 223.53 643.51 257.08 643.51C290.63 643.51 282.77 708.51 282.77 708.51C282.77 708.51 298.49 675.67 329.18 664.95C355.05 655.95 366.94 698.62 370.04 712.27C373.15 698.62 385.04 655.94 410.91 664.95C441.61 675.67 457.31 708.51 457.31 708.51C457.31 708.51 449.46 643.51 483.01 643.51C516.56 643.51 545 679.84 545 679.84C545 679.84 518.58 617.73 545 612.03C571.42 606.33 615 637.72 615 637.72C615 637.72 568.59 584.53 599.29 568.31C629.99 552.09 672.21 571.31 672.21 571.31C672.21 571.31 633.55 539.22 645 510C656.45 480.78 714.25 484.68 714.25 484.68C714.25 484.68 664.5 463.61 672.25 435.04C680 406.47 739.91 406.38 739.91 406.38Z" fill="url(#paint0_radial_47_193)"/>
<path d="M656.31 354C656.31 512.15 528.11 640.34 369.97 640.34C211.83 640.34 83.61 512.17 83.61 354C83.61 195.83 211.8 67.67 370 67.67C528.2 67.67 656.31 195.87 656.31 354Z" fill="url(#paint1_radial_47_193)"/>
<path style="mix-blend-mode:multiply" opacity="0.9" d="M370 67.67C211.8 67.67 83.61 195.87 83.61 354C83.61 512.13 211.8 640.36 370 640.36C528.2 640.36 656.31 512.17 656.31 354C656.31 195.83 528.11 67.67 370 67.67ZM348.56 562.9C217.68 562.9 111.56 456.8 111.56 325.9C111.56 195 217.64 88.9 348.56 88.9C479.48 88.9 585.56 195 585.56 325.9C585.56 456.8 479.44 562.9 348.56 562.9Z" fill="url(#paint2_radial_47_193)"/>
<g style="mix-blend-mode:color-dodge" opacity="0.7">
<path d="M144.06 507.15C102.71 447.7 98.7 390.75 96.06 349.7C96.074 349.574 96.074 349.446 96.06 349.32C94.4699 336.328 93.8582 323.234 94.23 310.15C86.72 353 86.36 420.57 129.48 495C202.31 620.75 338.09 640.53 406.48 628.84C406.43 628.84 240.75 646.16 144.06 507.15Z" fill="#FCF9DD"/>
</g>
</g>
<defs>
<radialGradient id="paint0_radial_47_193" cx="0" cy="0" r="1" gradientUnits="userSpaceOnUse" gradientTransform="translate(366.36 354.29) scale(378.77 378.77)">
<stop offset="0.35" stop-color="#F59F50"/>
<stop offset="0.58" stop-color="#F5A14F"/>
<stop offset="0.67" stop-color="#F5A84D"/>
<stop offset="0.72" stop-color="#F6B348"/>
<stop offset="0.77" stop-color="#F6C243"/>
<stop offset="0.82" stop-color="#F6BF43"/>
<stop offset="0.86" stop-color="#F5B641"/>
<stop offset="0.89" stop-color="#F3A63E"/>
<stop offset="0.92" stop-color="#F1903B"/>
<stop offset="0.95" stop-color="#ED7336"/>
<stop offset="0.97" stop-color="#EA5030"/>
<stop offset="1" stop-color="#E52629"/>
</radialGradient>
<radialGradient id="paint1_radial_47_193" cx="0" cy="0" r="1" gradientUnits="userSpaceOnUse" gradientTransform="translate(229.87 203.26) scale(479.46 479.46)">
<stop stop-color="#EEE86E"/>
<stop offset="0.02" stop-color="#EEE16B"/>
<stop offset="0.14" stop-color="#EFBA5E"/>
<stop offset="0.25" stop-color="#F09D54"/>
<stop offset="0.35" stop-color="#F18C4E"/>
<stop offset="0.42" stop-color="#F1864C"/>
<stop offset="0.69" stop-color="#EB5239"/>
<stop offset="0.89" stop-color="#E7322D"/>
<stop offset="1" stop-color="#E52629"/>
</radialGradient>
<radialGradient id="paint2_radial_47_193" cx="0" cy="0" r="1" gradientUnits="userSpaceOnUse" gradientTransform="translate(278.43 276.09) scale(457.94 457.94)">
<stop offset="0.29" stop-color="#FBE752"/>
<stop offset="1" stop-color="#EB5E4E"/>
</radialGradient>
<clipPath id="clip0_47_193">
<rect width="739.91" height="712.17" fill="white"/>
</clipPath>
</defs>
</svg>
